**kern	**silbe	**kern	**silbe
*ICvox	*	*ICvox	*
*F:	*	*F:	*
*M4/4	*	*M4/4	*
*clefC3	*	*clefG2	*
r;	.	r;	.
=1	=1	=1	=1
1r	.	1r	.
=2	=2	=2	=2
1r	.	1r	.
=3	=3	=3	=3
1r	.	1r	.
=4	=4	=4	=4
1r	.	1r	.
=5	=5	=5	=5
4.f	I	1r	.
8[e	had	.	.
4e]	_	.	.
8f	a	.	.
8c#q	_	.	.
8d	dream	.	.
=6	=6	=6	=6
8c#q	_	.	.
8d	_	1r	.
8c#q	_	.	.
4.d	_	.	.
2r	.	.	.
=7	=7	=7	=7
16c	thin-	1r	.
16c	-king	.	.
16c	that	.	.
16c	a'-	.	.
8c	-you	.	.
16A	were	.	.
16[c	gone.	.	.
4c]	_	.	.
4r	.	.	.
=8	=8	=8	=8
16c	lea-	1r	.
16c	-ving	.	.
8c	me	.	.
8c	on	.	.
16d	my	.	.
16d	own,	.	.
4e	_	.	.
8c	and	.	.
8c#q	_	.	.
8d	you	.	.
=9	=9	=9	=9
8c#q	_	.	.
8d	_	1r	.
8c#q	_	.	.
8d	_	.	.
8c#q	_	.	.
4d	_	.	.
8r	.	.	.
8d	you	.	.
8c	was	.	.
8[B-	there	.	.
=10	=10	=10	=10
4B-]	_	1r	.
4r	.	.	.
2r	.	.	.
=11	=11	=11	=11
8c#	in	1r	.
8c#	some	.	.
8c#	o-	.	.
16e	-ther's	.	.
8Bq	_	.	.
16c#	arms	.	.
8Bq	_	.	.
4c#	_	.	.
4r	.	.	.
=12	=12	=12	=12
24c#	gi-	1r	.
24c#	-ving	.	.
24c#	a-	.	.
8c#	-way	.	.
8c#	all	.	.
16d	my	.	.
8dq	_	.	.
16[e	charms,	.	.
8e]	_	.	.
8r	.	.	.
8c	and	.	.
8r	.	.	.
=13	=13	=13	=13
4.f	when	1r	.
8e	I	.	.
8dq	_	.	.
4e	a-	.	.
8f	-wake	.	.
8c#q	_	.	.
8d	_	.	.
=14	=14	=14	=14
8c#q	_	.	.
8d	_	1r	.
8c#q	_	.	.
8[d	_	.	.
4d]	_	.	.
2r	.	.	.
=15	=15	=15	=15
4c	I	1r	.
8c	want	.	.
16A	to	.	.
16cQ	_	.	.
16[d	hear	.	.
16d]	_	.	.
16c	you	.	.
8A	_	.	.
4r	.	.	.
=16	=16	=16	=16
16c	fil-	1r	.
16c	-ling	.	.
8c	my	.	.
8c	life	.	.
16d	with	.	.
16[e	cheer,	.	.
8e]	_	.	.
8r	.	.	.
8c	and	.	.
8c#q	_	.	.
8d	when	.	.
=17	=17	=17	=17
8c#q	_	.	.
8d	_	1r	.
8c#q	_	.	.
8[d	_	.	.
4d]	_	.	.
8r	.	.	.
8d	I	.	.
8c	come	.	.
16d	back	.	.
16c	_	.	.
=18	=18	=18	=18
4B-	_	1r	.
4r	.	.	.
2r	.	.	.
=19	=19	=19	=19
8Bq	_	.	.
8c#	you	1r	.
8Bq	_	.	.
8c#	won't	.	.
8Bq	_	.	.
8c#	be	.	.
16B	a-	.	.
16[c#	-lone,	.	.
4c#]	_	.	.
8.r	.	.	.
16E~	cuz	.	.
=20	=20	=20	=20
4c#	I'll	1r	.
16c#	be	.	.
8d	at	.	.
16[e	home,	.	.
4e]	_	.	.
8eq	_	.	.
4f	say!	.	.
=21	=21	=21	=21
4r	.	1r	.
8g#q	_	.	.
8a	Oh	.	.
8g#q	_	.	.
8[a	me,	.	.
4a]	_	.	.
8g	oh	.	.
8e#q	_	.	.
8f#	my!	.	.
=22	=22	=22	=22
8e#q	_	.	.
8f#	_	1r	.
8e#q	_	.	.
8[f#	_	.	.
4f#]	_	.	.
2r	.	.	.
=23	=23	=23	=23
4f	Dreams	1r	.
8f	in	.	.
16d	my	.	.
16[f	arms.	.	.
4f]	_	.	.
4r	.	.	.
=24	=24	=24	=24
4f	glad	1r	.
16f	you	.	.
8d	at	.	.
16[f	home	.	.
4f]	_	.	.
8fq	_	.	.
8g	with	.	.
8d#q	_	.	.
8e	me	.	.
=25	=25	=25	=25
8d#q	_	.	.
8e	_	1r	.
8d#q	_	.	.
8[e	_	.	.
4e_	_	.	.
4e]	_	.	.
4r	.	.	.
=26	=26	=26	=26
2r	.	1r	.
8r	.	.	.
8E~	I'm	.	.
16d-	so	.	.
16c-	_	.	.
8d-	glad	.	.
=27	=27	=27	=27
16c-	_	1r	.
16A-	_	.	.
8G-q	_	.	.
8[A-	_	.	.
4A-]	_	.	.
4r	.	.	.
16r	.	.	.
16c-	It	.	.
16d-	was	.	.
16[f-	on	.	.
=28	=28	=28	=28
4f-]	_	1r	.
16d-	ly	.	.
16c-	a	.	.
8d-	dream	.	.
4r	.	.	.
8r	.	.	.
8[ff	Ha	.	.
=29	=29	=29	=29
1ff_	_	1r	.
=30	=30	=30	=30
2ff]	_	1r	.
8r	.	.	.
16c~	(vocalizing)	.	.
16d	_	.	.
4f	say!	.	.
=31	=31	=31	=31
1r	.	1r	.
=32	=32	=32	=32
1r	.	1r	.
=33	=33	=33	=33
1r	.	1r	.
=34	=34	=34	=34
1r	.	1r	.
=35	=35	=35	=35
1r	.	4r	.
.	.	4c 4cc	Ooh!
.	.	4cc 4ccc	_
.	.	4a 4aa	_
=36	=36	=36	=36
1r	.	1a- 1aa-	_
=37	=37	=37	=37
1r	.	1r	.
=38	=38	=38	=38
1r	.	1r	.
=39	=39	=39	=39
4r	.	4r	.
8g#q	_	8B-q 8eq 8gq	_
8a	Oh	8c 8f 8a	Oh
8g#q	_	8B-q 8eq 8gq	_
8[a	me,	8[c 8[f 8[a	me,
4a]	_	4c] 4f] 4a]	_
8g	oh	8c# 8e 8g	oh
8e#q	_	8e#q	_
8f#	my!	8d 8f# 8a	my!
=40	=40	=40	=40
8e#q	_	8cq 8eq 8gq	_
4f#	_	2d 2f# 2a	_
4[d	_	.	.
4d]	_	2r	.
4r	.	.	.
=41	=41	=41	=41
4f	Dreams	1r	.
8f	in	.	.
16d	my	.	.
16[f	arms.	.	.
4f]	_	.	.
4r	.	.	.
=42	=42	=42	=42
8f	All	1r	.
8f	I	.	.
8f	have	.	.
16d	to	.	.
16[f	hold	.	.
16f]	_	.	.
8f	since	.	.
8fq	_	.	.
16[g	you've	.	.
16g]	_	.	.
8.f	been	.	.
=43	=43	=43	=43
8dq	_	.	.
8e	gone.	1r	.
8dq	_	.	.
8[e	_	.	.
4e]	_	.	.
4r	.	.	.
8r	.	.	.
8E~	I	.	.
=44	=44	=44	=44
12d	got	1r	.
12d	through.	.	.
12B	_	.	.
8A-	_	.	.
8r	.	.	.
4r	.	.	.
16r	.	.	.
16c-	May-	.	.
16d-	-be	.	.
16[f-	I	.	.
=45	=45	=45	=45
4f-]	_	1r	.
16d-	can	.	.
16c-	_	.	.
8d-	be	.	.
4r	.	.	.
8r	.	.	.
16E~	some	.	.
16[d	help	.	.
=46	=46	=46	=46
16d]	_	1r	.
16d-	to	.	.
16c-	_	.	.
16c-	you.	.	.
4r	.	.	.
4r	.	.	.
8r	.	.	.
8[ff	Hey	.	.
=47	=47	=47	=47
4.ff]	_	1r	.
16dd	_	.	.
16cc	_	.	.
8dd	_	.	.
8r	.	.	.
8.r	.	.	.
16[e-	Help	.	.
=48	=48	=48	=48
16e-]	_	1r	.
8.d	me	.	.
16d	to	.	.
16r	.	.	.
8d	a-	.	.
8f	-help	.	.
8d	me	.	.
4f	say!	.	.
=49	=49	=49	=49
4r	.	4r	.
8g#q	_	8B-q 8eq 8gq	_
8a	Oh	8c 8f 8a	Oh
8g#q	_	8B-q 8eq 8gq	_
8[a	me,	8[c 8[f 8[a	me,
4a]	_	4c] 4f] 4a]	_
8g	oh	8c# 8e 8g	oh
8e#q	_	8e#q	_
8f#	my	8d 8f# 8a	my
=50	=50	=50	=50
8e#q	_	8cq 8eq 8gq	_
8f#	_	2.d 2.f# 2.a	_
8[d	_	.	.
4d]	_	.	.
2r	.	.	.
.	.	4r	.
=51	=51	=51	=51
4f	Dreams	1r	.
8f	in	.	.
16d	my	.	.
16[f	arms	.	.
4f]	_	.	.
8r	.	.	.
16c	E-	.	.
16d	-ver	.	.
=52	=52	=52	=52
4f	since	1r	.
16f	you	.	.
8d	been	.	.
16[f	gone	.	.
16f]	_	.	.
8f	is	.	.
8gq	_	.	.
16[a	all	.	.
16a]	_	.	.
8.g	I.	.	.
=53	=53	=53	=53
4r	.	1r	.
8.r	.	.	.
16E~	I'm	.	.
16e-	glad	.	.
8d	it's	.	.
16[d	on	.	.
16d]	_	.	.
16c	ly	.	.
16c	a	.	.
16[d	dream.	.	.
=54	=54	=54	=54
16d]	_	1r	.
16c	_	.	.
8A	_	.	.
8r	.	.	.
16c	Lem-	.	.
16d	-me	.	.
8f	say	.	.
8d	one	.	.
4f	thing!	.	.
=55	=55	=55	=55
4cc	Hey	4r	.
.	.	8B-q 8eq 8gq	_
8r	.	8c 8f 8a	Oh
.	.	8B-q 8eq 8gq	_
8g	Oh	8[c 8[f 8[a	me,
8a	me	4c] 4f] 4a]	_
8r	.	.	.
8g	oh	8c# 8e 8g	oh
8e#q	_	8e#q	_
8f#	my!	8d 8f# 8a	my
=56	=56	=56	=56
8e#q	_	8cq 8eq 8gq	_
4f#	_	2[d 2[f# 2[a	_
4[d	_	.	.
8d]	_	8d] 8f#] 8a]	_
4.r	.	8r	.
.	.	4r	.
=57	=57	=57	=57
4f	Dreams	1r	.
8f	in	.	.
16d	my	.	.
16[f	arms	.	.
4f]	_	.	.
8.r	.	.	.
16F~	is	.	.
=58	=58	=58	=58
8f	all	1r	.
8f	I	.	.
8f	have	.	.
16d	to	.	.
16[f	hold	.	.
16f]	_	.	.
8f	since	.	.
8fq	_	.	.
16[g	you've	.	.
16g]	_	.	.
8.f	been	.	.
=59	=59	=59	=59
8dq	_	.	.
8e	gone.	1r	.
8d~	_	.	.
4r	.	.	.
16e	Come	.	.
8d	on	.	.
16[d	back	.	.
16d]	_	.	.
8.d	home.	.	.
=60	=60	=60	=60
16r	.	1r	.
8a-	Some-	.	.
16[b-	-time	.	.
16b-]	_	.	.
8a-	I	.	.
8b-q	_	.	.
16[cc-	dream	.	.
16cc-]	_	.	.
16b-	a-	.	.
8a-	-bout	.	.
16f	you,	.	.
8f	ba-	.	.
16f	-by!	.	.
=61	=61	=61	=61
4r	.	4r	.
8g#q	_	8B-q 8eq 8gq	_
8a	Oh	8c 8f 8a	Oh
8g#q	_	8B-q 8eq 8gq	_
8[a	me,	8[c 8[f 8[a	me,
4a]	_	4c] 4f] 4a]	_
8cc	oh	8c# 8e 8g	oh
8ccq	_	8e#q	_
8[dd	my	8d 8f# 8a	my
=62	=62	=62	=62
.	.	8cq 8eq 8gq	_
4.dd]	_	2.d 2.f# 2.a	_
8[a	_	.	.
4a]	_	.	.
4r	.	4r	.
=63	=63	=63	=63
4f	Dreams	1r	.
8f	in	.	.
16d	my	.	.
16[f	arms	.	.
4f]	_	.	.
8r	.	.	.
8[gg	E	.	.
=64	=64	=64	=64
12gg]	_	1r	.
12ff	ver	.	.
12ff	since	.	.
12dd	you	.	.
12cc	been	.	.
12[ff	gone.	.	.
8ff]	_	.	.
8r	.	.	.
8fq	_	.	.
8g	For	.	.
8dq	_	.	.
8e	me.	.	.
=65	=65	=65	=65
8dq	_	.	.
8e	_	1r	.
8r	.	.	.
4r	.	.	.
16e-	All	.	.
8d	I	.	.
16[d	have	.	.
16d]	_	.	.
8c	to	.	.
16[c	do	.	.
=66	=66	=66	=66
16c]	_	1r	.
8d	is	.	.
16[f	dream	.	.
16f]	_	.	.
8d	a-	.	.
16[f	-bout	.	.
16f]	_	.	.
16d	you.	.	.
16r	.	.	.
8gq	_	.	.
4a	hey!	.	.
16r	.	.	.
r;	.	r;	.
r;	.	r;	.
*-	*-	*-	*-
!!!ENC: Nathaniel Condit-Schultz